X:692
T:Birkhall
T:Scots Reel
C:John Robertson
B:Donna Hinds, Grumbling Old Woman
N:From an Andy DeJarlis LP
Z:Nigel Gatherer
M:4/4
L:1/8
K:D
(3ABc | d2 fd A2 dA | FADF  A2 FA | B2 dB A2 cd | e2 ef e3
A     | d2 fd A2 dA | FADF  A2 dc | Bcde  fd e2 | d6       :|
fg    | a3  b a2 f2 | df A2 f2 ef | g3  a g2 e2 | ce A2 e2
fg    | a3  b a2 f2 | df A2 f2 ef | gece  A2 Bc | d2 f2 d2 :|
<end>
<start>
